X: 1
T: New Road, The
M: 4/4
L: 1/8
R: reel
K: Dmix
D2FA d2dB|cAAG Eccd|DEFA dged|cAAG  ED (3A,B,^C|
DEFA dged|cAAG Ec (3ccc |ABcA d2ed|cAGE ED (3DDD|
d2 fg afge|cdef ge^ce|d2 (3efg agfa|gfga fdfg|
a2df afdf|ge^ce fgfe|d2 (3efg agfa|gfga fdde|
~f2de fAgf|eA^cA ~g3a|~f2de fafg|fde^c Adde|
~f2de fAgf|eA^cA gafg|afge (3B^cd ed|^cAGE ED (3A,B,^C|
